X:50
T: Piper's Punch
S: J.Pickering
Z: B.Black
R: jig
M: 6/8
L: 1/8
K: G
A | BGE DEG | GBd e2 f | gfg edB | BAG AGA |
BGE DEG | GBd e2 f | gfe dBA | BGG G2 :|
A |: gfg aga | bge edB | ege edB |1 BAG ABd |
g3 a3 | bge edB | ege edB | BGG GBd :|
|2 BAG AGA | BGE DEG | GBd e2 f | gfe dBA |\
BGF G2 ||
